img/prop-icon11.svg

<svg width="30" height="30" viewBox="0 0 30 30" fill="none" xmlns="http://www.w3.org/2000/svg">
<g clip-path="url(#clip0_163_3920)">
<path d="M29.6851 26.1968V10.4862L6.09048 0L0.00537109 3.80325V19.5139L23.6003 30.0001L29.6851 26.1968ZM27.2118 24.8264L24.7385 26.3722V15.6858L27.2118 14.14V24.8264ZM6.28711 2.79368L26.3975 11.7316L23.4031 13.6026L3.29271 4.66528L6.28711 2.79368ZM2.47868 7.0099L22.2652 15.8039V26.7007L2.47868 17.9061V7.0099Z" fill="#E0E3E4"/>
</g>
<defs>
<clipPath id="clip0_163_3920">
<rect width="29.9889" height="30" fill="white"/>
</clipPath>
</defs>
</svg>

<svg width="30" height="30" fill="none" xmlns="http://www.w3.org/2000/svg"><g clip-path="url(#clip0_163_3920)"><path d="M29.685 26.197v-15.71L6.09 0 .005 3.803v15.71L23.6 30l6.085-3.803zm-2.473-1.37l-2.474 1.545V15.686l2.474-1.546v10.686zM6.287 2.793l20.11 8.938-2.994 1.87-20.11-8.937 2.994-1.871zM2.48 7.01l19.786 8.794V26.7L2.48 17.906V7.01z" fill="#E0E3E4"/></g><defs><clipPath id="clip0_163_3920"><path fill="#fff" d="M0 0h29.989v30H0z"/></clipPath></defs></svg>
